static/logos/launchdarkly-glyph-color.svg

<svg width="50" height="48" viewBox="0 0 50 48" fill="none" xmlns="http://www.w3.org/2000/svg">
<g clip-path="url(#clip0_1_2196)">
<path d="M24.612 47.947C24.4156 47.9422 24.224 47.886 24.0562 47.784C23.8884 47.6818 23.7504 47.5372 23.656 47.365C23.496 46.993 23.496 46.623 23.762 46.305L35.086 30.781L15.2561 38.835C15.0961 38.887 14.9901 38.941 14.8321 38.941C14.6057 38.9448 14.3843 38.8744 14.2018 38.7404C14.0194 38.6064 13.886 38.4162 13.8221 38.199C13.6621 37.775 13.8741 37.299 14.2461 37.033L31.684 26.809L1.01006 25.059C0.73684 25.0486 0.478434 24.932 0.28982 24.734C0.101206 24.536 -0.00274674 24.2724 5.52064e-05 23.999C5.52064e-05 23.523 0.318064 22.993 1.01006 22.939L31.684 21.193L14.2461 10.9669C13.8741 10.7029 13.6621 10.2269 13.8221 9.80094C13.8932 9.58826 14.0285 9.4029 14.2094 9.27036C14.3903 9.13784 14.6078 9.06466 14.8321 9.06094C14.9901 9.06094 15.0961 9.11294 15.2561 9.16494L35.086 17.2189L23.762 1.64293C23.55 1.32293 23.496 0.900932 23.656 0.582932C23.7398 0.40215 23.8754 0.250326 24.0456 0.146711C24.2158 0.0430964 24.413 -0.0076415 24.612 0.000931902C24.878 0.000931902 25.144 0.106932 25.356 0.318932L47.898 22.729C48.2078 23.0594 48.3788 23.496 48.376 23.949C48.376 24.371 48.216 24.795 47.898 25.165L25.356 47.629C25.2594 47.7288 25.1438 47.8086 25.0162 47.8636C24.8884 47.9184 24.751 47.9456 24.612 47.947Z" fill="#242424"/>
</g>
<defs>
<clipPath id="clip0_1_2196">
<rect width="50" height="48" fill="white"/>
</clipPath>
</defs>
</svg>

<svg xmlns="http://www.w3.org/2000/svg" width="66.667" height="64" fill="none" viewBox="0 0 50 48"><g clip-path="url(#a)"><path fill="#242424" d="M24.612 47.947a1.123 1.123 0 0 1-.956-.582c-.16-.372-.16-.742.106-1.06l11.324-15.524-19.83 8.054c-.16.052-.266.106-.424.106a1.036 1.036 0 0 1-1.01-.742c-.16-.424.052-.9.424-1.166l17.438-10.224-30.674-1.75A1.05 1.05 0 0 1 0 23.999c0-.476.318-1.006 1.01-1.06l30.674-1.746-17.438-10.226c-.372-.264-.584-.74-.424-1.166a1.084 1.084 0 0 1 1.01-.74c.158 0 .264.052.424.104l19.83 8.054L23.762 1.643c-.212-.32-.266-.742-.106-1.06A1.006 1.006 0 0 1 24.612 0c.266 0 .532.106.744.318l22.542 22.41c.31.33.48.767.478 1.22 0 .422-.16.846-.478 1.216L25.356 47.629a1.05 1.05 0 0 1-.744.318Z"/></g><defs><clipPath id="a"><path fill="#fff" d="M0 0h50v48H0z"/></clipPath></defs></svg>
